default-svg/e017-clipboard-multiple.svg

<svg xmlns="http://www.w3.org/2000/svg" viewBox="0 0 24 24"><path d="M4 7H2v14c0 1.1.9 2 2 2h14v-2H4M20 3h-3.2c-.4-1.2-1.5-2-2.8-2-1.3 0-2.4.8-2.8 2H8a2 2 0 0 0-2 2v12c0 1.1.9 2 2 2h12a2 2 0 0 0 2-2V5a2 2 0 0 0-2-2m-6 0c.6 0 1 .5 1 1s-.5 1-1 1-1-.5-1-1 .4-1 1-1Z"/></svg>

<svg xmlns="http://www.w3.org/2000/svg" viewBox="0 0 24 24"><path d="M4 7H2V21C2 22.1 2.9 23 4 23H18V21H4ZM20 3H16.8C16.4 1.8 15.3 1 14 1C12.7 1 11.6 1.8 11.2 3H8A2 2 0 0 0 6 5V17C6 18.1 6.9 19 8 19H20A2 2 0 0 0 22 17V5A2 2 0 0 0 20 3ZM14 3C14.6 3 15 3.5 15 4S14.5 5 14 5S13 4.5 13 4S13.4 3 14 3Z"/></svg>
